src/pos-icons/shield-account.svg

<svg height="24" viewBox="0 0 24 24" width="24" xmlns="http://www.w3.org/2000/svg"><path d="m12 1-9 4v6c0 5.55 3.84 10.74 9 12 5.16-1.26 9-6.45 9-12v-6zm0 4a3 3 0 0 1 3 3 3 3 0 0 1 -3 3 3 3 0 0 1 -3-3 3 3 0 0 1 3-3m5.13 12c-1.21 1.85-3.02 3.24-5.13 3.92-2.11-.68-3.92-2.07-5.13-3.92-.34-.5-.63-1-.87-1.53 0-1.65 2.71-3 6-3s6 1.32 6 3c-.24.53-.53 1.03-.87 1.53z"/></svg>

<?xml version="1.0" encoding="UTF-8"?><!DOCTYPE svg PUBLIC "-//W3C//DTD SVG 1.1//EN" "http://www.w3.org/Graphics/SVG/1.1/DTD/svg11.dtd"><svg xmlns="http://www.w3.org/2000/svg" xmlns:xlink="http://www.w3.org/1999/xlink" version="1.1" id="mdi-shield-account" width="24" height="24" viewBox="0 0 24 24"><path d="M12,1L3,5V11C3,16.55 6.84,21.74 12,23C17.16,21.74 21,16.55 21,11V5L12,1M12,5A3,3 0 0,1 15,8A3,3 0 0,1 12,11A3,3 0 0,1 9,8A3,3 0 0,1 12,5M17.13,17C15.92,18.85 14.11,20.24 12,20.92C9.89,20.24 8.08,18.85 6.87,17C6.53,16.5 6.24,16 6,15.47C6,13.82 8.71,12.47 12,12.47C15.29,12.47 18,13.79 18,15.47C17.76,16 17.47,16.5 17.13,17Z" /></svg>
